data/styles/default/dark/symbols/sports_centre-m.svg

<svg height="18" viewBox="0 0 24 24" width="18" xmlns="http://www.w3.org/2000/svg"><circle cx="12" cy="12" fill="#000" opacity=".6" r="12"/><circle cx="12" cy="12" fill="#2B5C4B" r="11"/><path d="m11.672709 4.7280561c-.896063 0-1.622449.6853555-1.622449 1.5309036 0 .8455642.726377 1.5309036 1.622449 1.5309036.896064 0 1.622449-.6853555 1.622449-1.5309036 0-.8455643-.726377-1.5309036-1.622449-1.5309036zm-4.6644602 3.0618072.4056123 1.5309843c.2027981.7654514.6872219.7654514 1.292869.7654514h1.3435299c.481661.765452.255261 2.009882.405612 3.179613h-.7351678c-.8112246 0-2.1040935.765452-1.2928689 2.296396l1.2168368 2.296476c.8112249 1.530904 2.0279809.38273 1.6224489-.38273l-1.216837-2.296476c-.2027977-.38273.214409-.38273.405613-.38273h2.002044s.960299 1.893611 2.091408 3.272127c.417546.50881.880065 1.202859 1.458992 1.202859.405596 0 1.100648-.591491.360914-1.424491-1.385303-1.559991-2.262864-3.168301-2.262864-3.933793 0-.890327-.16576-2.765354-.405596-3.827299h1.216837c.395868.74867 1.090709 1.91365 1.090709 1.91365.448387.732897 1.185648.677518 1.185648 0 0-.09286-.01185-.292776-.113224-.518101l-1.149127-2.5437227c-.075046-.1660263-.205569-.3827299-.811224-.3827299h-6.2869099l-.6084103-1.9137305c-.2433593-.7654518-1.419643-.7654518-1.419643 0 0 .3827299.1437095.8474226.202798 1.1481575z" fill="#000"/></svg>

<svg version="1.1" viewBox="0 0 24 24" width="18" height="18" xmlns="http://www.w3.org/2000/svg">
  <title>sports_centre-m</title>
  <circle id="Oval" cx="12" cy="12" r="12" fill="#000" opacity=".6"/>
  <circle cx="12" cy="12" r="11" fill="#51585E"/>
  <g fill="none" fill-rule="evenodd">
    <g id="pitch-m" fill-rule="nonzero">
      <path id="Shape" d="m 11.672709,4.7280561 c -0.896063,0 -1.622449,0.6853555 -1.622449,1.5309036 0,0.8455642 0.726377,1.5309036 1.622449,1.5309036 0.896064,0 1.622449,-0.6853555 1.622449,-1.5309036 0,-0.8455643 -0.726377,-1.5309036 -1.622449,-1.5309036 z M 7.0082488,7.7898633 7.4138611,9.3208476 C 7.6166592,10.086299 8.101083,10.086299 8.7067301,10.086299 H 10.05026 c 0.481661,0.765452 0.255261,2.009882 0.405612,3.179613 H 9.7207042 c -0.8112246,0 -2.1040935,0.765452 -1.2928689,2.296396 l 1.2168368,2.296476 c 0.8112249,1.530904 2.0279809,0.38273 1.6224489,-0.38273 l -1.216837,-2.296476 c -0.2027977,-0.38273 0.214409,-0.38273 0.405613,-0.38273 h 2.002044 c 0,0 0.960299,1.893611 2.091408,3.272127 0.417546,0.50881 0.880065,1.202859 1.458992,1.202859 0.405596,0 1.100648,-0.591491 0.360914,-1.424491 -1.385303,-1.559991 -2.262864,-3.168301 -2.262864,-3.933793 0,-0.890327 -0.16576,-2.765354 -0.405596,-3.827299 h 1.216837 c 0.395868,0.74867 1.090709,1.91365 1.090709,1.91365 0.448387,0.732897 1.185648,0.677518 1.185648,0 0,-0.09286 -0.01185,-0.292776 -0.113224,-0.518101 L 15.931638,8.9380773 C 15.856592,8.772051 15.726069,8.5553474 15.120414,8.5553474 H 8.8335041 L 8.2250938,6.6416169 c -0.2433593,-0.7654518 -1.419643,-0.7654518 -1.419643,0 0,0.3827299 0.1437095,0.8474226 0.202798,1.1481575 z" fill="#000"/>
    </g>
 </g>
</svg>
